X: 1741
T: Serenler
C: Hasan Tepeli
O: Turkey
F: http://compmusic.upf.edu/node/140
N: muhayyer--turku--aksak--serenler--burdur
N: makam= muhayyer
N: form= turku
N: usul= aksak = 9/8
M: 9/8
L: 1/16
K: C _2/4B ^3/4f  
Q: 1/4=102
%%MIDI tuningsystem comma53
A4 FGA2 A2A2 A6 | A4bc' c'2c'2 c'aa4a2  | \
w:  *  Se ren *  ler  se  |  *  ren *  ler  yük sek  *  *  de   | 
fgag _b3/2a/gf g3d g2g2 g2 | 
w:  se *  ren *  *  *  ler  *  of   *  SAZ  | 
gf edg2 fga2 a2ba gfe2  | fgag _b3/2a/gf _3/4edc2 Bcd2 z2 | 
w:  *  *  *  *  Ben  gi di yo rum   |  ma *  mur  *  *  *  *  *  ol *  sun  a *  man   | 
c/B/c/d/ cBBA G2A3B/c/de fgag  | a4 g2fg a2a2 bagf e2 | 
w:  vî *  *  *  ran *  *  *  lar  ey   SAZ  |  *  Ben  gi di yo rum   | 
fg ag_b3/2a/ gf_3/4ed c2Bc d2z2  | \
w:  ma *  mur  *  *  *  *  *  ol *  sun  a *  man   | 
c/B/c/d/cB BAG2 A4 .A2.A2 .A2 | 
w:  vî *  *  *  ran *  *  *  lar  ey   SAZ  | 
A4F2 G2A2 A2A6  | z4 bc'c'2 c'2c'a a4 a2 | \
w:  *  Ah ret  hak kın   |  he *  lâl  ey le  *  *  de   | 
fg ag_b3/2a/ gfg3dg2 g2g2  | 
w:  yâ *  ren *  *  *  ler  *  of   *  SAZ  | 
gfed ggfg a2a2 bagf e2 | fg ag_b3/2a/ gf_3/4ed c2Bc d2z2  | 
w:  *  *  *  *  A man  *  *  Al lah   |  ne *  dir  *  *  *  *  *  bu *  nun  a *  man   | 
c/B/c/d/cB BAG2 A3B/c/ defg ag | a4g2 fga2 a2ba gfe2  | 
w:  ça *  *  *  re *  *  *  si  ey   SAZ  |  *  Yak tı  *  be ni   | 
fgag _b3/2a/gf _3/4edc2 Bcd2 z2 | \
w:  kaþ *  la *  *  *  *  *  rı *  nın  a *  man   | 
c/B/c/d/ cBBA G2A4.A2 .A2.A2  | 
w:  ka *  *  *  re *  *  *  si  ey   SAZ  | 
A4 FGA2 A2A2 A6 | A4bc' c'2c'2 c'aa4a2  | \
w:  *  Se ren *  ler  se  |  *  ren *  ler  yük sek  *  *  de   | 
fgag _b3/2a/gf g3d g2g2 g2 | 
w:  se *  ren *  *  *  ler  *  of   *  SAZ  | 
gf edg2 fga2 a2ba gfe2  | fgag _b3/2a/gf _3/4edc2 Bcd2 z2 | 
w:  *  *  *  *  Ben  gi di yo rum   |  ma *  mur  *  *  *  *  *  ol *  sun  a *  man   | 
c/B/c/d/ cBBA G2A3B/c/de fgag  | a4 g2fg a2a2 bagf e2 | 
w:  vî *  *  *  ran *  *  *  lar  ey   SAZ  |  *  Ben  gi di yo rum   | 
fg ag_b3/2a/ gf_3/4ed c2Bc d2z2  | \
w:  ma *  mur  *  *  *  *  *  ol *  sun  a *  man   | 
c/B/c/d/cB BAG2 A4 .A2.A2 .A2 | 
w:  vî *  *  *  ran *  *  *  lar  ey   SAZ  | 
A4F2 G2A2 A2A6  | z4 bc'c'2 c'2c'a a4 a2 | \
w:  *  Ah ret  hak kın   |  he *  lâl  ey le  *  *  de   | 
fg ag_b3/2a/ gfg3dg2 g2g2  | 
w:  yâ *  ren *  *  *  ler  *  of   *  SAZ  | 
gfed ggfg a2a2 bagf e2 | fg ag_b3/2a/ gf_3/4ed c2Bc d2z2  | 
w:  *  *  *  *  A man  *  *  Al lah   |  ne *  dir  *  *  *  *  *  bu *  nun  a *  man   | 
c/B/c/d/cB BAG2 A3B/c/ defg ag | a4g2 fga2 a2ba gfe2  | 
w:  ça *  *  *  re *  *  *  si  ey   SAZ  |  *  Yak tı  *  be ni   | 
fgag _b3/2a/gf _3/4edc2 Bcd2 z2 | \
w:  kaþ *  la *  *  *  *  *  rı *  nın  a *  man   | 
c/B/c/d/ cBBA G2A4.A2 .A2.A2  | 
w:  ka *  *  *  re *  *  *  si  ey   SAZ  | 
|


